img/star-filled.svg

<svg width="14" height="14" viewBox="0 0 14 14" fill="none" xmlns="http://www.w3.org/2000/svg">
<g clip-path="url(#clip0_96182_191)">
<path d="M13.6962 6.37211C13.9717 6.10355 14.069 5.7094 13.9501 5.343C13.831 4.9766 13.5207 4.71504 13.1394 4.65954L9.74958 4.16699C9.60521 4.14596 9.48046 4.05541 9.41598 3.9245L7.90048 0.853131C7.73032 0.508036 7.38494 0.293579 7.00004 0.293579C6.61542 0.293579 6.27004 0.508036 6.09988 0.853131L4.5841 3.92478C4.51962 4.05569 4.39459 4.14624 4.25022 4.16727L0.860391 4.65982C0.479414 4.71504 0.168802 4.97688 0.0496586 5.34328C-0.069204 5.70968 0.0280727 6.10383 0.303643 6.37239L2.75631 8.7631C2.86087 8.86514 2.90881 9.01204 2.88414 9.15557L2.30553 12.5314C2.25422 12.8285 2.33216 13.1176 2.52447 13.3455C2.82331 13.7007 3.34501 13.8089 3.76215 13.5897L6.79371 11.9957C6.92042 11.9292 7.07993 11.9298 7.20637 11.9957L10.2382 13.5897C10.3857 13.6673 10.5429 13.7066 10.7052 13.7066C11.0016 13.7066 11.2825 13.5748 11.4756 13.3455C11.6682 13.1176 11.7459 12.828 11.6946 12.5314L11.1157 9.15557C11.091 9.01176 11.1389 8.86514 11.2435 8.7631L13.6962 6.37211Z" fill="#E9CE93"/>
</g>
<defs>
<clipPath id="clip0_96182_191">
<rect width="14" height="14" fill="white"/>
</clipPath>
</defs>
</svg>

<svg width="14" height="14" fill="none" xmlns="http://www.w3.org/2000/svg"><g clip-path="url(#a)"><path d="M13.696 6.372a.998.998 0 0 0 .254-1.029.998.998 0 0 0-.81-.683l-3.39-.493a.443.443 0 0 1-.334-.242L7.9.853a.998.998 0 0 0-.9-.56.998.998 0 0 0-.9.56L4.584 3.925a.443.443 0 0 1-.334.242L.86 4.66a.998.998 0 0 0-.81.683.998.998 0 0 0 .254 1.03l2.452 2.39a.444.444 0 0 1 .128.393l-.578 3.375a.983.983 0 0 0 .218.814c.3.356.821.464 1.238.245l3.032-1.594a.454.454 0 0 1 .412 0l3.032 1.594a.994.994 0 0 0 1.238-.245.983.983 0 0 0 .219-.814l-.58-3.375a.443.443 0 0 1 .128-.393l2.453-2.39Z" fill="#E9CE93"/></g><defs><clipPath id="a"><path fill="#fff" d="M0 0h14v14H0z"/></clipPath></defs></svg>
